public/icons/like.svg

<svg width="88" height="89" viewBox="0 0 88 89" fill="none" xmlns="http://www.w3.org/2000/svg">
<circle cx="44.0002" cy="44.2992" r="44" fill="white"/>
<path d="M44.1002 27.2992C34.6952 27.2992 27.0002 34.9942 27.0002 44.3992C27.0002 53.8042 34.6952 61.4992 44.1002 61.4992C53.5052 61.4992 61.2002 53.8042 61.2002 44.3992C61.2002 34.9942 53.5052 27.2992 44.1002 27.2992Z" stroke="#1A56FF" stroke-width="2" stroke-miterlimit="10" stroke-linecap="round" stroke-linejoin="round"/>
<path d="M33.9955 52.1705C37.7879 52.1705 36.9243 53.725 45.7728 53.725C52.4441 53.725 52.3742 52.1099 52.3742 51.4072C52.3742 50.6346 51.9529 50.0726 51.9529 50.0726C51.9529 50.0726 53.4274 49.5114 53.4274 48.2476C53.4274 47.0537 52.3034 46.6324 52.3034 46.6324C52.3034 46.6324 53.4274 46.0705 53.4274 44.8766C53.4274 43.6127 52.1635 43.1914 52.1635 43.1914C52.1635 43.1914 52.3042 42.2782 52.3042 41.717C52.3042 41.0143 51.5829 40.5122 50.3191 40.5122C48.4932 40.5122 48.5912 40.5122 46.2594 40.5122C44.7048 40.5122 43.6563 39.9354 44.2882 38.5309C45.0608 36.9157 45.9881 34.5536 45.0748 33.0084C44.5128 32.0251 42.757 31.2525 42.5463 33.0084C42.125 37.4326 38.8916 38.2052 37.3464 40.0311C36.011 41.6462 35.4001 43.6205 33.9955 43.6205" stroke="#1A56FF" stroke-width="2" stroke-miterlimit="10" stroke-linejoin="round"/>
</svg>

<svg xmlns="http://www.w3.org/2000/svg" width="88" height="89" fill="none"><circle cx="44" cy="44.299" r="44" fill="#fff"/><path stroke="#1A56FF" stroke-linecap="round" stroke-linejoin="round" stroke-miterlimit="10" stroke-width="2" d="M44.1 27.3c-9.405 0-17.1 7.694-17.1 17.1 0 9.404 7.695 17.1 17.1 17.1 9.405 0 17.1-7.696 17.1-17.1 0-9.406-7.695-17.1-17.1-17.1Z"/><path stroke="#1A56FF" stroke-linejoin="round" stroke-miterlimit="10" stroke-width="2" d="M33.995 52.17c3.793 0 2.93 1.555 11.778 1.555 6.671 0 6.601-1.615 6.601-2.318 0-.772-.421-1.334-.421-1.334s1.474-.562 1.474-1.825c0-1.194-1.124-1.616-1.124-1.616s1.124-.561 1.124-1.755c0-1.264-1.264-1.686-1.264-1.686s.141-.913.141-1.474c0-.703-.721-1.205-1.985-1.205h-4.06c-1.554 0-2.603-.577-1.97-1.981.772-1.615 1.7-3.977.786-5.523-.562-.983-2.318-1.756-2.529 0-.421 4.425-3.654 5.197-5.2 7.023-1.335 1.615-1.946 3.59-3.35 3.59"/></svg>
